X:3
T:Larid\'e 6 temps
G:Groill
R:Larid\'e 6 temps
C:Traditionnel, arrangement Ronan Keryell http://kazimodal.trad.org
%% Doublé
%%
Q:C2=100--108
Q:C2=160
P:A5
M:3/4
S:Tonioù Breizh-Izel 1869 (Pleuigner/Landaol)
K:Dm
P:A
%%MIDI gchord cffcfz
%%MIDI gchord fccfcf
%%MIDI chordprog 105
%%MIDI bassprog 36
%%MIDI program 73
%%MIDI bassvol 127
|: "Dm"(DF) ED "C"Cz | "F"FF (GA) "G"Gz | "Dm"(DF) ED "C"Cz | "F"FF (GA) "G"Gz :|
|: "Gm"((3G>AG) FG AD | "Bb"F2 (AG) "C"FD | "Gm"((3G>AG) FG AD | "Bb"({FG}F)F "C"(EF) "Dm"Dz :|
%%text 1: basse R\'e/Sol, guitare Dm 3 cordes, bombarde renaissance, fl\^ute
%%text 1: idem + nappes accord\'eon
